!!!OTL: Die dienende Schwester Es war einmal ein Maegdelein,
!!!ARE: Europa, Mitteleuropa, Deutschland (BRD), Rheinprovinz
!!!YOR: 4, S. 118
!!    ????
!!!SCT: Q0075u
!!!YEM: Copyright 1995, estate of Helmut Schaffrath.
**kern
*ICvox
*Ivox
*M6/8
*k[b-]
*F:
{8f
=1
4f
8a
8cc
8b-
8a
=2
4a
8g
4g}
{8g
=3
4g
8dd
8dd
8cc
8b-
=4
4b-
8a
4a}
{8f
=5
4f
8ff
8ff
8ee
8dd
=6
4dd
8cc
4ff}
{8a
=7
4a
8dd
8dd
8cc
8b-
=8
4b-
8a
4a}
==
!!!AGN: Ballade, Adelige als Dienstmagd, Tod; Kinder - Spiel, Tanz
!!!ONB: ESAC (Essen Associative Code) Database: BALLADE
!!!AMT: compound duple
!!!AIN: vox
!!!EED: Helmut Schaffrath
!!!EEV: 1.0
*-
